brandFactory_export/2.Regular/Acreditación_2Regular.svg

<?xml version="1.0" encoding="UTF-8"?>
<svg width="24px" height="24px" viewBox="0 0 24 24" version="1.1" xmlns="http://www.w3.org/2000/svg" xmlns:xlink="http://www.w3.org/1999/xlink">
    <title>2.Regular/Acreditación_2Regular</title>
    <g id="Symbols" stroke="none" stroke-width="1" fill="none" fill-rule="evenodd">
        <g id="2.Regular/Acreditación_2Regular" fill="#5CB615" fill-rule="nonzero">
            <path d="M1.71764706,4.53613445 C1.56638655,4.5394958 1.44537815,4.66386555 1.44867113,4.81512605 L1.44867113,18.9596639 C1.44537815,19.1109244 1.56638655,19.2352941 1.71764706,19.2386555 L21.9092437,19.2386555 C22.0605042,19.2352941 22.1815126,19.1109244 22.1782196,18.9596639 L22.1782196,4.81512605 C22.1815126,4.66386555 22.0605042,4.5394958 21.9092437,4.53613445 L1.71764706,4.53613445 Z M21.9058824,20.7478992 L1.71764706,20.7478992 C0.769747899,20.7478992 0,19.9445378 0,18.9596639 L0,4.81512605 C0,3.8302521 0.769747899,3.0302521 1.71764706,3.0302521 L21.9092437,3.0302521 C22.8571429,3.0302521 23.6268908,3.8302521 23.6268908,4.81512605 L23.6268908,18.9596639 C23.6235294,19.9445378 22.8537815,20.7478992 21.9058824,20.7478992 Z M10.6352941,14.7647059 L3.14621849,14.7647059 C2.74621849,14.7647059 2.42352941,14.4285714 2.42352941,14.0117647 C2.42352941,13.594958 2.74957983,13.2588235 3.14621849,13.2588235 L10.6352941,13.2588235 C11.0352941,13.2588235 11.3579832,13.594958 11.3579832,14.0117647 C11.3579832,14.4285714 11.0319328,14.7647059 10.6352941,14.7647059 Z M8.22857143,10.7445378 L3.14621849,10.7445378 C2.74621849,10.7445378 2.42016807,10.4084034 2.42016807,9.99159664 C2.42016807,9.57478992 2.74621849,9.23865546 3.14621849,9.23865546 L8.22857143,9.23865546 C8.62857143,9.23865546 8.95462185,9.57478992 8.95462185,9.99159664 C8.9512605,10.4084034 8.62521008,10.7445378 8.22857143,10.7445378 Z M16.9378151,7.29915966 C17.6201681,7.29915966 18.1546218,7.48739496 18.5243697,7.85714286 C18.907563,8.24033613 19.102521,8.81176471 19.102521,9.5512605 C19.102521,10.2907563 18.907563,10.8588235 18.5243697,11.2453782 C18.1546218,11.6151261 17.6201681,11.8 16.9378151,11.8 C16.2554622,11.8 15.7210084,11.6117647 15.3546218,11.2453782 C14.9714286,10.8621849 14.7798319,10.2941176 14.7798319,9.5512605 C14.7798319,8.81176471 14.9714286,8.24369748 15.3546218,7.8605042 C15.7243697,7.48403361 16.2588235,7.29915966 16.9378151,7.29915966 L16.9378151,7.29915966 Z M16.9378151,8.60336134 C16.7428571,8.60336134 16.3932773,8.62689076 16.2285714,8.79495798 C16.0605042,8.96302521 16.0336134,9.34285714 16.0336134,9.5512605 C16.0336134,9.75966387 16.0605042,10.1361345 16.2252101,10.3008403 C16.3495798,10.4252101 16.6016807,10.492437 16.9378151,10.492437 C17.2773109,10.492437 17.5327731,10.4252101 17.6571429,10.3008403 C17.8252101,10.1327731 17.8487395,9.75966387 17.8487395,9.5512605 C17.8487395,9.34285714 17.8252101,8.96638655 17.6537815,8.79831933 C17.4857143,8.6302521 17.1361345,8.60336134 16.9378151,8.60336134 L16.9378151,8.60336134 Z M18.2588235,12.7815126 C19.0588235,12.7815126 19.7176471,13.0369748 20.1613445,13.5142857 C20.5680672,13.9546218 20.7831933,14.5663866 20.7831933,15.2823529 L20.7831933,16.0319328 C20.7831933,16.1731092 20.6722689,16.287395 20.5378151,16.287395 L13.3478992,16.287395 C13.210084,16.287395 13.0991597,16.1731092 13.1024466,16.0352941 L13.1024466,15.2823529 C13.1024466,14.5663866 13.3176471,13.9546218 13.7210084,13.5142857 C14.1613445,13.0369748 14.8201681,12.7815126 15.6201681,12.7815126 L18.2588235,12.7815126 L18.2588235,12.7815126 Z M18.2588235,14.0890756 L15.6201681,14.0890756 C15.3042017,14.0890756 14.8773109,14.1462185 14.6252101,14.4218487 C14.4806723,14.5798319 14.410084,14.7848739 14.3764706,14.9831933 L19.4991597,14.9831933 C19.4722689,14.7747899 19.3882353,14.5798319 19.2504202,14.4218487 C19.0016807,14.1462185 18.5714286,14.0890756 18.2588235,14.0890756 Z" id="Acreditación_2Regular"></path>
        </g>
    </g>
</svg>

<svg width="24" height="24" viewBox="0 0 24 24" xmlns="http://www.w3.org/2000/svg"><path d="M1.718 4.536a.274.274 0 00-.27.28V18.96a.274.274 0 00.27.279h20.191a.274.274 0 00.27-.28V4.816a.274.274 0 00-.27-.279H1.718zm20.188 16.212H1.718C.77 20.748 0 19.945 0 18.96V4.815C0 3.83.77 3.03 1.718 3.03h20.191c.948 0 1.718.8 1.718 1.785V18.96c-.003.985-.773 1.788-1.721 1.788zm-11.27-5.983h-7.49c-.4 0-.722-.336-.722-.753s.326-.753.722-.753h7.49c.4 0 .722.336.722.753s-.326.753-.723.753zm-2.407-4.02H3.146a.74.74 0 01-.726-.753.74.74 0 01.726-.753H8.23c.4 0 .726.336.726.753-.004.416-.33.753-.726.753zm8.709-3.446c.682 0 1.217.188 1.586.558.384.383.579.955.579 1.694 0 .74-.195 1.308-.579 1.694-.37.37-.904.555-1.586.555-.683 0-1.217-.188-1.583-.555-.384-.383-.575-.95-.575-1.694 0-.74.191-1.307.575-1.69.37-.377.904-.562 1.583-.562zm0 1.304c-.195 0-.545.024-.71.192-.167.168-.194.548-.194.756 0 .209.027.585.191.75.125.124.377.191.713.191.34 0 .595-.067.72-.191.167-.168.19-.541.19-.75 0-.208-.023-.585-.194-.753-.168-.168-.518-.195-.716-.195zm1.32 4.179c.8 0 1.46.255 1.903.732.407.44.622 1.052.622 1.768v.75c0 .141-.11.255-.245.255h-7.19a.246.246 0 01-.246-.252v-.753c0-.716.216-1.327.619-1.768.44-.477 1.1-.732 1.9-.732h2.638zm0 1.307H15.62c-.316 0-.743.057-.995.333a1.09 1.09 0 00-.249.561H19.5a1.054 1.054 0 00-.249-.561c-.248-.276-.679-.333-.991-.333z" fill="#5CB615" fill-rule="nonzero"/></svg>
